build/system/PersonRefreshSolid.svg

<svg xmlns="http://www.w3.org/2000/svg" fill="none" viewBox="0 0 24 24" focusable="false"><path d="M0 0H24V24H0z"/><path fill="#74767B" fill-rule="evenodd" d="M7.56408 7.98615C7.26317 5.33815 9.33448 3.01813 11.9995 3.01813C14.6646 3.01813 16.7359 5.33815 16.435 7.98615L16.1729 10.2921C15.9317 12.4147 14.1358 14.0181 11.9995 14.0181C9.86328 14.0181 8.06732 12.4147 7.82612 10.2921L7.56408 7.98615ZM11.1536 15.0181C11.6687 15.0181 12.0134 15.5615 11.8843 16.0601C11.7637 16.526 11.6995 17.0146 11.6995 17.5181C11.6995 18.3297 11.8662 19.1022 12.1672 19.8036C12.3953 20.3351 12.0438 21.0181 11.4654 21.0181L4.87216 21.0181C4.42434 21.0181 4.09168 20.6034 4.18883 20.1663L4.28877 19.7165C4.89882 16.9713 7.3337 15.0181 10.1459 15.0181L11.1536 15.0181ZM14.2917 18.3432C14.5566 20.2124 16.1633 21.65 18.1057 21.65C20.2333 21.65 21.9581 19.9252 21.9581 17.7976C21.9581 15.67 20.2334 13.9452 18.1057 13.9452C17.6642 13.9452 17.2388 14.0197 16.8421 14.1574C16.5029 14.2751 16.3234 14.6455 16.4411 14.9846C16.5589 15.3238 16.9292 15.5033 17.2683 15.3855C17.5298 15.2948 17.8113 15.2452 18.1057 15.2452C19.5154 15.2452 20.6581 16.3879 20.6581 17.7976C20.6581 19.2073 19.5154 20.35 18.1057 20.35C16.8491 20.35 15.8046 19.4419 15.5926 18.2462L16.0933 18.738C16.3494 18.9896 16.761 18.9859 17.0125 18.7298C17.2641 18.4737 17.2604 18.0622 17.0043 17.8106L15.4262 16.2605C15.1701 16.009 14.7585 16.0127 14.507 16.2688L12.9569 17.8469C12.7054 18.103 12.709 18.5145 12.9651 18.7661C13.2213 19.0176 13.6328 19.0139 13.8844 18.7578L14.2917 18.3432Z"/></svg>

<svg xmlns="http://www.w3.org/2000/svg" fill="none" viewBox="0 0 24 24" focusable="false"><path fill="#74767B" fill-rule="evenodd" d="M7.56 7.98c-.3-2.65 1.77-4.97 4.43-4.97 2.67 0 4.74 2.32 4.44 4.97l-.26 2.31a4.2 4.2 0 0 1-4.18 3.72c-2.13 0-3.93-1.6-4.17-3.72zm3.59 7.03c.51 0 .86.55.73 1.05-.12.46-.19.95-.19 1.45 0 .81.17 1.59.47 2.29.23.53-.12 1.21-.7 1.21H4.87c-.45 0-.78-.41-.69-.85l.1-.45c.61-2.74 3.05-4.7 5.86-4.7zm3.14 3.33a3.85 3.85 0 0 0 7.66-.55c0-2.12-1.72-3.85-3.85-3.85-.44 0-.87.07-1.26.21a.65.65 0 0 0-.4.83c.11.34.48.52.82.4.26-.09.55-.14.84-.14 1.41 0 2.55 1.14 2.55 2.55s-1.14 2.56-2.55 2.56c-1.26 0-2.3-.91-2.51-2.11l.5.49c.25.25.67.25.92-.01.25-.25.25-.66-.01-.91l-1.58-1.55a.65.65 0 0 0-.92 0l-1.55 1.58c-.25.26-.25.67.01.92s.67.25.92-.01z"/></svg>
